static/images/mobile/copyright/wikipedia-tagline-azb.svg

<?xml version="1.0" encoding="UTF-8"?>
<svg width="84px" height="18px" viewBox="0 0 84 18" version="1.1" xmlns="http://www.w3.org/2000/svg" xmlns:xlink="http://www.w3.org/1999/xlink">
    <title>azb-tagline</title>
    <g id="Page-1" stroke="none" stroke-width="1" fill="none" fill-rule="evenodd">
        <path d="M14.641791,14.9104478 L14.9440299,15.1916978 L15.5485075,15.7038246 C15.6492537,15.7919776 15.75,15.8843284 15.8507463,15.9850746 C15.5820896,16.3880597 15.4477612,16.6567164 15.0447761,16.9253731 C14.641791,16.5223881 14.238806,16.119403 13.8358209,15.8507463 C14.1044776,15.4477612 14.3731343,15.1791045 14.641791,14.9104478 Z M31.9701493,14.9104478 L32.2723881,15.1916978 L32.8768657,15.7038246 C32.9776119,15.7919776 33.0783582,15.8843284 33.1791045,15.9850746 C32.9104478,16.3880597 32.7761194,16.6567164 32.3731343,16.9253731 C31.9701493,16.5223881 31.5671642,16.119403 31.1641791,15.8507463 C31.4328358,15.4477612 31.7014925,15.1791045 31.9701493,14.9104478 Z M41.238806,14.9104478 L41.5410448,15.1916978 L42.1455224,15.7038246 C42.2462687,15.7919776 42.3470149,15.8843284 42.4477612,15.9850746 C42.1791045,16.3880597 41.9104478,16.6567164 41.641791,16.9253731 C41.238806,16.5223881 40.8358209,16.119403 40.4328358,15.8507463 C40.7014925,15.4477612 40.9701493,15.1791045 41.238806,14.9104478 Z M47.1492537,14.7761194 C47.5522388,15.0447761 47.9552239,15.4477612 48.358209,15.8507463 C48.0895522,16.2537313 47.8208955,16.5223881 47.5522388,16.9253731 C47.1492537,16.5223881 46.7462687,16.2537313 46.3432836,15.8507463 C46.6119403,15.4477612 46.880597,15.0447761 47.1492537,14.7761194 Z M16.6567164,14.7761194 C17.0597015,15.1791045 17.4626866,15.4477612 17.8656716,15.8507463 C17.5970149,16.2537313 17.4626866,16.5223881 17.0597015,16.7910448 C16.6567164,16.3880597 16.2537313,15.9850746 15.8507463,15.7164179 C16.119403,15.3134328 16.3880597,15.0447761 16.6567164,14.7761194 Z M33.9850746,14.7761194 L34.2873134,15.0573694 L34.891791,15.5694963 C34.9925373,15.6576493 35.0932836,15.75 35.1940299,15.8507463 C34.9253731,16.2537313 34.7910448,16.5223881 34.3880597,16.7910448 C33.9850746,16.3880597 33.5820896,15.9850746 33.1791045,15.7164179 C33.4477612,15.3134328 33.7164179,15.0447761 33.9850746,14.7761194 Z M43.2537313,14.7761194 C43.6567164,15.1791045 44.0597015,15.4477612 44.4626866,15.8507463 C44.1940299,16.2537313 43.9253731,16.5223881 43.6567164,16.7910448 C43.2537313,16.3880597 42.8507463,15.9850746 42.4477612,15.7164179 C42.7164179,15.3134328 42.9850746,15.0447761 43.2537313,14.7761194 Z M30.761194,12.761194 C29.4179104,12.761194 28.7462687,12.0895522 28.0746269,11.0149254 C27.7220149,10.6623134 27.4722481,10.2068563 27.235337,9.91852262 L27.1343284,9.80597015 C27.1343284,11.4179104 26.1940299,12.6268657 23.238806,12.6268657 L22.9701493,12.6268657 L22.9701493,12.761194 L22.7014925,12.761194 C21.8238806,12.761194 21.0632836,12.4101493 20.7473433,11.8172736 L20.6865672,11.6865672 C20.4179104,12.2238806 19.6119403,12.761194 18.6716418,12.761194 L18.5373134,12.761194 C18.4326062,12.761194 18.3432023,12.7458907 18.2671137,12.7192602 L18.2686567,12.761194 L18,12.761194 C16.9925373,12.761194 16.3392607,12.52507 15.9294871,11.8314555 L15.8507463,11.6865672 C15.4477612,12.358209 14.641791,12.761194 13.7014925,12.761194 L13.4328358,12.761194 C12.0895522,12.761194 11.4179104,12.0895522 10.7462687,11.0149254 C10.3936567,10.6623134 10.1438899,10.2068563 9.90697878,9.91852262 L9.80597015,9.80597015 C9.67164179,10.7462687 9.40298507,11.2835821 9,11.5522388 C8.05970149,12.2238806 6.31343284,12.761194 4.29850746,12.761194 C1.6119403,12.761194 2.44337883e-12,11.6865672 2.44337883e-12,9.40298507 C2.44337883e-12,8.73134328 0.134328358,8.19402985 0.402985075,7.52238806 L0.805970149,7.65671642 C0.671641791,8.05970149 0.671641791,8.32835821 0.671641791,8.73134328 C0.671641791,10.4776119 2.01492537,11.2835821 4.56716418,11.2835821 C6.04477612,11.2835821 8.19402985,10.880597 9.13432836,9.94029851 C9.13432836,9.67164179 9.13432836,9.53731343 9,9.26865672 C8.59701493,8.32835821 7.52238806,7.25373134 6.44776119,6.04477612 L5.7761194,5.37313433 C5.7761194,5.23880597 5.64179104,4.97014925 5.64179104,4.8358209 C5.64179104,4.56716418 5.7761194,4.29850746 5.91044776,3.89552239 L6.31343284,3.49253731 C7.34328358,2.8488806 9.73017724,1.95848881 12.4100688,1.17604361 L12.761194,1.07462687 C12.4925373,1.47761194 12.2238806,1.88059701 11.9552239,2.41791045 C11.2835821,2.55223881 10.4776119,2.82089552 9.53731343,3.2238806 C8.44925373,3.70746269 7.36119403,4.08223881 6.56691045,4.44613433 L6.31343284,4.56716418 C6.85074627,4.97014925 7.52238806,5.23880597 7.92537313,5.37313433 L7.65671642,5.91044776 C8.73134328,6.98507463 10.0746269,8.46268657 11.5522388,10.0746269 C12.0895522,10.7462687 12.761194,11.1492537 13.5671642,11.1492537 L13.7014925,11.1492537 L13.701,11.417 L13.9701493,11.4179104 C14.7761194,11.4179104 15.5820896,11.1492537 15.7164179,10.4776119 L15.9850746,9.40298507 L16.6567164,8.86567164 L16.6567164,9 C16.5223881,9.53731343 16.3880597,9.94029851 16.3880597,10.2089552 C16.3880597,10.6119403 16.5223881,10.880597 16.7910448,11.0149254 C17.1940299,11.2835821 17.5970149,11.4179104 18.1343284,11.4179104 L18.2686567,11.4179104 L18.2671137,11.4598443 C18.3432023,11.4332138 18.4326062,11.4179104 18.5373134,11.4179104 L18.6716418,11.4179104 C19.0746269,11.4179104 19.6119403,11.2835821 19.880597,11.1492537 C20.1492537,11.0149254 20.4179104,10.6119403 20.4179104,9.94029851 C20.4179104,7.79104478 20.2835821,5.91044776 20.1492537,3.49253731 L20.1492537,2.95522388 L21.0895522,2.01492537 C21.2238806,4.43283582 21.358209,7.11940299 21.358209,10.2089552 C21.358209,10.682013 21.6705736,11.2591923 22.5703129,11.3904733 C22.6691487,11.32434 22.79927,11.2835821 22.9701493,11.2835821 L23.3731343,11.2835821 C24.1791045,11.2835821 25.2537313,11.1492537 25.9253731,10.6119403 C26.1940299,10.4776119 26.4626866,10.2089552 26.4626866,10.0746269 C26.4626866,9.80597015 26.3283582,9.67164179 26.1940299,9.40298507 C25.7910448,8.46268657 24.7164179,7.3880597 23.641791,6.17910448 L23.4892012,6.02651466 L22.9701493,5.50746269 C22.9701493,5.37313433 22.8358209,5.10447761 22.8358209,4.97014925 C22.8358209,4.70149254 22.9701493,4.43283582 23.1044776,4.02985075 L23.5074627,3.62686567 C24.5373134,2.98320896 26.9242071,2.09281716 29.6040986,1.31037197 L29.9552239,1.20895522 C29.6865672,1.6119403 29.4179104,2.01492537 29.1492537,2.55223881 C28.4776119,2.68656716 27.6716418,2.95522388 26.7313433,3.35820896 C25.6432836,3.84179104 24.5552239,4.21656716 23.7609403,4.58046269 L23.5074627,4.70149254 C24.0447761,5.10447761 24.7164179,5.37313433 25.119403,5.50746269 L24.8507463,6.04477612 C25.9253731,7.11940299 27.2686567,8.59701493 28.7462687,10.2089552 C29.2835821,10.880597 29.9552239,11.2835821 30.761194,11.2835821 L31.0298507,11.2835821 L31.0298507,11.4179104 L31.2985075,11.4179104 C32.1044776,11.4179104 32.9104478,11.1492537 33.0447761,10.4776119 L33.3134328,9.40298507 L33.9850746,8.86567164 L33.9850746,9 C33.8507463,9.53731343 33.7164179,9.94029851 33.7164179,10.2089552 C33.7164179,10.6119403 33.8507463,10.880597 34.119403,11.0149254 C34.5223881,11.2835821 34.9253731,11.4179104 35.4626866,11.4179104 L35.5970149,11.4179104 L35.5967691,11.5256988 C35.6952499,11.459854 35.8266532,11.4179104 36,11.4179104 C36.4029851,11.4179104 36.9402985,11.2835821 37.2089552,11.1492537 C37.4776119,11.0149254 37.7462687,10.6119403 37.7462687,9.94029851 C37.7462687,7.79104478 37.6119403,5.91044776 37.4776119,3.49253731 L37.4776119,2.95522388 L38.4179104,2.01492537 C38.5522388,4.43283582 38.6865672,7.11940299 38.6865672,10.2089552 C38.6865672,10.7462687 39.0895522,11.4179104 40.2985075,11.4179104 L40.4328358,11.4179104 C41.238806,11.4179104 42.0447761,11.1492537 42.1791045,10.4776119 L42.4477612,9.40298507 L43.119403,8.86567164 L43.119403,9 C42.9850746,9.53731343 42.8507463,9.94029851 42.8507463,10.2089552 C42.8507463,10.6119403 42.9850746,10.880597 43.2537313,11.0149254 C43.6567164,11.2835821 44.0597015,11.4179104 44.5970149,11.4179104 L44.7313433,11.4179104 L44.7307274,11.6958902 C44.7726011,11.6898038 44.8175181,11.6865672 44.8656716,11.6865672 L45.1343284,11.6865672 L45.1343284,11.4179104 C46.0746269,11.4179104 46.7462687,11.4179104 47.1492537,11.2835821 C47.5522388,11.1492537 47.6865672,11.0149254 47.6865672,10.880597 C47.6865672,10.3432836 47.1492537,9.40298507 46.6119403,8.32835821 L47.0149254,7.7238806 L47.4179104,7.11940299 C47.9552239,7.92537313 48.4925373,9.26865672 48.4925373,10.3432836 C48.4925373,11.1492537 48.2238806,11.6865672 47.8208955,12.358209 C47.2835821,12.8955224 46.6119403,13.0298507 45,13.0298507 L44.8656716,13.0298507 C44.5732178,13.0298507 44.4001486,12.9104662 44.3031441,12.7583367 L44.4626866,12.761194 C43.4552239,12.761194 42.8019473,12.52507 42.3921737,11.8314555 L42.3134328,11.6865672 C41.9494177,12.293259 41.256589,12.6807417 40.4329575,12.7500099 L40.4328358,12.761194 L40.0298507,12.761194 C39.9724678,12.761194 39.919681,12.7565978 39.8711632,12.7480599 C39.1203077,12.6787474 38.4902595,12.3431366 38.2100299,11.8172736 L38.1492537,11.6865672 C37.880597,12.2238806 37.0746269,12.761194 36.1343284,12.761194 L36,12.761194 C35.8266532,12.761194 35.6952499,12.7192505 35.5967691,12.6534057 L35.5970149,12.761194 L35.3283582,12.761194 C34.3208955,12.761194 33.6676189,12.52507 33.2578453,11.8314555 L33.1791045,11.6865672 C32.8029851,12.3134328 32.0758209,12.7062687 31.2160398,12.7558607 L31.0298507,12.761194 L30.761194,12.761194 Z M74.0149254,15.9850746 L74.3171642,16.2663246 L74.9216418,16.7784515 C75.0223881,16.8666045 75.1231343,16.9589552 75.2238806,17.0597015 C74.8208955,17.4626866 74.6865672,17.7313433 74.4179104,18 C74.0149254,17.5970149 73.6119403,17.1940299 73.2089552,16.9253731 C73.4776119,16.5223881 73.7462687,16.2537313 74.0149254,15.9850746 Z M72.5373134,7.65671642 C73.2089552,7.65671642 74.2835821,7.92537313 76.0298507,8.59701493 C76.5671642,8.73134328 77.1044776,8.86567164 77.7761194,9 L78.5820896,9 L78.0447761,10.0746269 C77.1044776,10.0746269 76.5671642,10.2089552 76.1641791,10.4776119 L74.4179104,11.6865672 C73.0746269,12.6268657 71.4626866,13.0298507 69.8507463,13.0298507 L69.3134328,13.0298507 C69.0172216,13.0298507 68.8434823,12.9073788 68.7472039,12.752457 C67.9066277,12.7082872 67.342256,12.4543485 66.9742632,11.8314555 L66.8955224,11.6865672 C66.4925373,12.358209 65.6865672,12.761194 64.7462687,12.761194 L64.6119403,12.761194 C64.4170022,12.761194 64.275107,12.7081512 64.1734253,12.6277242 L63.9402985,12.6268657 L63.9402985,12.761194 C63.9402985,13.1641791 63.9402985,13.5671642 63.8059701,14.1044776 C63.6716418,14.5074627 63.4029851,14.9104478 63,15.3134328 C61.9253731,16.2537313 60.4477612,17.0597015 58.5671642,17.0597015 C56.5522388,17.0597015 54.5373134,15.7164179 54.5373134,13.0298507 C54.5373134,11.9552239 54.8059701,10.880597 55.2089552,10.0746269 L55.6119403,10.2089552 C55.3432836,10.880597 55.2089552,11.4179104 55.2089552,11.9552239 C55.2089552,14.1044776 56.5522388,15.4477612 58.4328358,15.4477612 C59.3731343,15.4477612 60.4477612,15.1791045 61.7910448,14.3731343 C62.4626866,13.8358209 63.1343284,13.4328358 63.1343284,13.1641791 C63.1343284,13.0298507 63.1343284,12.8955224 63,12.761194 L62.4626866,12.761194 C60.4477612,12.761194 59.238806,12.0895522 59.238806,10.6119403 C59.238806,9.94029851 59.5074627,9.40298507 59.7761194,8.86567164 C60.1791045,8.32835821 60.7164179,7.79104478 61.3880597,7.79104478 C62.3283582,7.79104478 63.4029851,9.13432836 63.6716418,11.2835821 L64.6119403,11.2835821 L64.6119403,11.4179104 L65.0149254,11.4179104 C65.8208955,11.4179104 66.6268657,11.1492537 66.761194,10.4776119 L67.0298507,9.40298507 L67.7014925,8.86567164 L67.7014925,9 C67.5671642,9.53731343 67.4328358,9.94029851 67.4328358,10.2089552 C67.4328358,10.6119403 67.5671642,10.880597 67.8358209,11.0149254 C68.238806,11.2835821 68.641791,11.4179104 69.1791045,11.4179104 L69.3134328,11.4179104 L69.3134328,11.6865672 L70.119403,11.6865672 L70.119403,11.4179104 C71.7686567,11.4179104 73.4179104,10.9386401 75.4066473,9.75377741 L75.761194,9.53731343 C74.5522388,9.13432836 73.4776119,8.86567164 72.4029851,8.86567164 C71.8656716,8.86567164 71.3283582,9 71.0597015,9.40298507 L71.1940299,9.94029851 L70.9253731,10.880597 L70.7910448,10.880597 L70.2537313,9.53731343 C70.3880597,8.32835821 71.3283582,7.65671642 72.5373134,7.65671642 Z M65.8208955,14.9104478 L66.1231343,15.1916978 L66.7276119,15.7038246 C66.8283582,15.7919776 66.9291045,15.8843284 67.0298507,15.9850746 C66.6268657,16.3880597 66.4925373,16.6567164 66.2238806,16.9253731 C65.8208955,16.5223881 65.4179104,16.119403 65.0149254,15.8507463 C65.2835821,15.4477612 65.5522388,15.1791045 65.8208955,14.9104478 Z M67.8358209,14.7761194 L68.1380597,15.0573694 L68.7425373,15.5694963 C68.8432836,15.6576493 68.9440299,15.75 69.0447761,15.8507463 C68.641791,16.2537313 68.5074627,16.5223881 68.238806,16.7910448 C67.8358209,16.3880597 67.4328358,15.9850746 67.0298507,15.7164179 C67.2985075,15.3134328 67.5671642,15.0447761 67.8358209,14.7761194 Z M72.5373134,13.9701493 C72.9402985,14.3731343 73.3432836,14.641791 73.7462687,15.0447761 C73.3432836,15.4477612 73.2089552,15.7164179 72.9402985,15.9850746 C72.5373134,15.5820896 72.1343284,15.1791045 71.7313433,14.9104478 C72,14.5074627 72.2686567,14.238806 72.5373134,13.9701493 Z M74.5522388,13.8358209 L74.8544776,14.1170709 L75.4589552,14.6291978 C75.5597015,14.7173507 75.6604478,14.8097015 75.761194,14.9104478 C75.358209,15.3134328 75.2238806,15.5820896 74.9552239,15.8507463 C74.5522388,15.4477612 74.1492537,15.0447761 73.7462687,14.7761194 C74.0149254,14.3731343 74.2835821,14.1044776 74.5522388,13.8358209 Z M81.2686567,2.01492537 C81.5373134,4.29850746 81.5373134,6.98507463 81.5373134,9.40298507 C81.5373134,10.0746269 81.5373134,10.6119403 81.4029851,11.1492537 C81.4029851,11.6865672 81.1343284,12.2238806 80.4626866,12.8955224 L80.3283582,12.8955224 C80.4434968,12.3198294 80.4599452,11.7441365 80.4622949,11.0838519 L80.4626866,9.67164179 C80.4626866,7.79104478 80.1940299,4.97014925 80.0597015,3.08955224 C80.3283582,2.68656716 80.7313433,2.28358209 81.1343284,2.01492537 L81.2686567,2.01492537 Z M61.2537313,9.40298507 C60.7164179,9.40298507 60.0447761,9.94029851 60.0447761,10.3432836 C60.0447761,10.880597 60.5820896,11.1492537 61.2537313,11.4179104 C61.7910448,11.5522388 62.4626866,11.5522388 63.1343284,11.5522388 C63,10.880597 62.7313433,10.3432836 62.3283582,9.94029851 C61.9253731,9.53731343 61.6567164,9.40298507 61.2537313,9.40298507 Z M59.7761194,4.56716418 L60.0783582,4.84841418 L60.6828358,5.36054104 C60.7835821,5.44869403 60.8843284,5.54104478 60.9850746,5.64179104 C60.7164179,6.04477612 60.4477612,6.31343284 60.1791045,6.58208955 C59.7761194,6.17910448 59.3731343,5.7761194 58.9701493,5.50746269 C59.238806,5.10447761 59.5074627,4.8358209 59.7761194,4.56716418 Z M61.7910448,4.43283582 L62.0932836,4.71408582 L62.6977612,5.22621269 C62.7985075,5.31436567 62.8992537,5.40671642 63,5.50746269 C62.7313433,5.91044776 62.4626866,6.17910448 62.1940299,6.44776119 C61.7910448,6.04477612 61.3880597,5.64179104 60.9850746,5.37313433 C61.2537313,4.97014925 61.5223881,4.70149254 61.7910448,4.43283582 Z M83.1492537,0 C83.0149254,0.268656716 83.0149254,0.537313433 82.880597,0.805970149 C82.4776119,1.20895522 81.9402985,1.34328358 81.4029851,1.34328358 C80.7313433,1.34328358 79.9253731,1.20895522 79.5223881,1.20895522 C79.3880597,1.20895522 79.119403,1.6119403 78.9850746,2.01492537 L78.8507463,2.01492537 L78.4477612,1.34328358 C78.4477612,0.805970149 78.7164179,0.134328358 79.3880597,0.134328358 C80.0597015,0.134328358 80.8656716,0.402985075 81.6716418,0.402985075 C81.9402985,0.402985075 82.2089552,0.402985075 82.4776119,0.268656716 C82.7462687,0.268656716 82.880597,0.134328358 83.1492537,0 Z" id="azb-tagline" fill="#000000" fill-rule="nonzero"></path>
    </g>
</svg>

<svg xmlns="http://www.w3.org/2000/svg" width="84" height="18"><path fill="#000" fill-rule="nonzero" d="m14.642 14.91.302.282.605.512c.1.088.201.18.302.281-.269.403-.403.672-.806.94-.403-.403-.806-.806-1.21-1.074.27-.403.538-.672.807-.94Zm17.328 0 .302.282.605.512c.1.088.201.18.302.281-.269.403-.403.672-.806.94-.403-.403-.806-.806-1.209-1.074.269-.403.537-.672.806-.94Zm9.269 0 .302.282.605.512c.1.088.201.18.302.281-.269.403-.538.672-.806.94-.403-.403-.806-.806-1.21-1.074.27-.403.538-.672.807-.94Zm5.91-.134c.403.269.806.672 1.21 1.075-.27.403-.538.671-.807 1.074-.403-.403-.806-.671-1.209-1.074.269-.403.538-.806.806-1.075Zm-30.492 0c.403.403.806.672 1.209 1.075-.269.403-.403.671-.806.94-.403-.403-.806-.806-1.21-1.075.27-.403.538-.671.807-.94Zm17.328 0 .302.281.605.512c.1.089.201.181.302.282-.269.403-.403.671-.806.94-.403-.403-.806-.806-1.209-1.075.269-.403.537-.671.806-.94Zm9.269 0c.403.403.806.672 1.209 1.075-.269.403-.538.671-.806.94-.403-.403-.806-.806-1.21-1.075.27-.403.538-.671.807-.94ZM30.76 12.761c-1.343 0-2.015-.671-2.686-1.746-.353-.353-.603-.808-.84-1.096l-.1-.113c0 1.612-.941 2.82-3.896 2.82h-.269v.135h-.269c-.877 0-1.638-.35-1.954-.944l-.06-.13c-.27.537-1.075 1.074-2.015 1.074h-.135a.814.814 0 0 1-.27-.042l.002.042H18c-1.007 0-1.66-.236-2.07-.93l-.08-.144c-.402.671-1.208 1.074-2.149 1.074h-.268c-1.343 0-2.015-.671-2.687-1.746-.352-.353-.602-.808-.839-1.096l-.101-.113c-.134.94-.403 1.478-.806 1.746-.94.672-2.687 1.21-4.701 1.21C1.612 12.761 0 11.686 0 9.402c0-.672.134-1.209.403-1.88l.403.134C.672 8.06.672 8.328.672 8.73c0 1.747 1.343 2.553 3.895 2.553 1.478 0 3.627-.403 4.567-1.344 0-.268 0-.403-.134-.671-.403-.94-1.478-2.015-2.552-3.224l-.672-.672c0-.134-.134-.403-.134-.537 0-.269.134-.537.268-.94l.403-.403c1.03-.644 3.417-1.535 6.097-2.317l.351-.101c-.268.403-.537.806-.806 1.343-.671.134-1.477.403-2.418.806-1.088.483-2.176.858-2.97 1.222l-.254.121c.538.403 1.21.672 1.612.806l-.268.537c1.074 1.075 2.418 2.553 3.895 4.165.538.671 1.21 1.074 2.015 1.074h.134v.268h.27c.805 0 1.611-.268 1.745-.94l.27-1.074.67-.537V9c-.134.537-.268.94-.268 1.209 0 .403.134.672.403.806a2.27 2.27 0 0 0 1.343.403h.135l-.002.042a.814.814 0 0 1 .27-.042h.135c.403 0 .94-.134 1.209-.269.268-.134.537-.537.537-1.209 0-2.149-.134-4.03-.269-6.447v-.538l.94-.94c.135 2.418.27 5.104.27 8.194 0 .473.312 1.05 1.211 1.181a.702.702 0 0 1 .4-.106h.403c.806 0 1.88-.135 2.552-.672.269-.134.538-.403.538-.537 0-.269-.135-.403-.269-.672-.403-.94-1.478-2.015-2.552-3.224l-.153-.152-.519-.52c0-.134-.134-.403-.134-.537 0-.269.134-.537.268-.94l.403-.403c1.03-.644 3.417-1.534 6.097-2.317l.351-.101c-.268.403-.537.806-.806 1.343-.671.135-1.477.403-2.418.806-1.088.484-2.176.859-2.97 1.222l-.254.121c.538.403 1.21.672 1.612.806l-.268.538c1.074 1.074 2.418 2.552 3.895 4.164.538.672 1.21 1.075 2.015 1.075h.269v.134h.269c.805 0 1.611-.269 1.746-.94l.268-1.075.672-.537V9c-.134.537-.269.94-.269 1.209 0 .403.135.672.403.806a2.27 2.27 0 0 0 1.344.403h.134v.108a.71.71 0 0 1 .403-.108c.403 0 .94-.134 1.209-.269.269-.134.537-.537.537-1.209 0-2.149-.134-4.03-.268-6.447v-.538l.94-.94c.134 2.418.269 5.104.269 8.194 0 .537.403 1.209 1.612 1.209h.134c.806 0 1.612-.269 1.746-.94l.269-1.075.671-.537V9c-.134.537-.268.94-.268 1.209 0 .403.134.672.403.806a2.27 2.27 0 0 0 1.343.403h.134v.278a.938.938 0 0 1 .135-.01h.268v-.268c.94 0 1.612 0 2.015-.134.403-.135.538-.27.538-.403 0-.538-.538-1.478-1.075-2.553l.403-.604.403-.605c.537.806 1.075 2.15 1.075 3.224 0 .806-.27 1.344-.672 2.015-.537.538-1.21.672-2.821.672h-.134c-.293 0-.466-.12-.563-.272l.16.003c-1.008 0-1.661-.236-2.07-.93l-.08-.144c-.364.606-1.056.994-1.88 1.063v.011h-.403a.915.915 0 0 1-.159-.013c-.75-.07-1.38-.405-1.661-.93l-.06-.131c-.27.537-1.075 1.074-2.016 1.074H36a.71.71 0 0 1-.403-.108v.108h-.269c-1.007 0-1.66-.236-2.07-.93l-.079-.144c-.376.626-1.103 1.02-1.963 1.069l-.186.005h-.269Zm43.254 3.224.302.281.605.512c.1.089.201.181.302.282-.403.403-.537.671-.806.94-.403-.403-.806-.806-1.209-1.075.269-.403.537-.671.806-.94Zm-1.478-8.328c.672 0 1.747.268 3.493.94.537.134 1.074.269 1.746.403h.806l-.537 1.075c-.94 0-1.478.134-1.88.403l-1.747 1.209c-1.343.94-2.955 1.343-4.567 1.343h-.538c-.296 0-.47-.123-.566-.278-.84-.044-1.405-.298-1.773-.92l-.078-.145c-.403.671-1.21 1.074-2.15 1.074h-.134a.685.685 0 0 1-.439-.133l-.233-.001v.134c0 .403 0 .806-.134 1.343-.134.403-.403.806-.806 1.21-1.075.94-2.552 1.746-4.433 1.746-2.015 0-4.03-1.344-4.03-4.03 0-1.075.269-2.15.672-2.955l.403.134c-.269.672-.403 1.209-.403 1.746 0 2.15 1.343 3.493 3.224 3.493.94 0 2.015-.269 3.358-1.075.672-.537 1.343-.94 1.343-1.209 0-.134 0-.268-.134-.403h-.537c-2.015 0-3.224-.671-3.224-2.15 0-.67.268-1.208.537-1.745.403-.538.94-1.075 1.612-1.075.94 0 2.015 1.343 2.284 3.493h.94v.134h.403c.806 0 1.612-.269 1.746-.94l.269-1.075.671-.537V9c-.134.537-.268.94-.268 1.209 0 .403.134.672.403.806a2.27 2.27 0 0 0 1.343.403h.134v.269h.806v-.27c1.65 0 3.299-.478 5.288-1.663l.354-.217c-1.209-.403-2.283-.671-3.358-.671-.537 0-1.075.134-1.343.537l.134.537-.269.94h-.134l-.537-1.343c.134-1.209 1.074-1.88 2.283-1.88Zm-6.716 7.253.302.282.605.512c.1.088.201.18.302.281-.403.403-.537.672-.806.94-.403-.403-.806-.806-1.21-1.074.27-.403.538-.672.807-.94Zm2.015-.134.302.281.605.512c.1.089.201.181.302.282-.403.403-.538.671-.806.94-.403-.403-.806-.806-1.21-1.075.27-.403.538-.671.807-.94Zm4.701-.806c.403.403.806.672 1.21 1.075-.404.403-.538.671-.807.94-.403-.403-.806-.806-1.209-1.075.269-.403.538-.671.806-.94Zm2.015-.134.302.281.605.512c.1.088.201.18.302.281-.403.403-.537.672-.806.94-.403-.402-.806-.805-1.209-1.074.269-.403.538-.672.806-.94ZM81.27 2.015c.268 2.284.268 4.97.268 7.388 0 .672 0 1.209-.134 1.746 0 .538-.269 1.075-.94 1.747h-.135c.115-.576.132-1.152.134-1.812V9.672c0-1.881-.268-4.702-.402-6.582a4.088 4.088 0 0 1 1.074-1.075h.135ZM61.254 9.403c-.538 0-1.21.537-1.21.94 0 .538.538.806 1.21 1.075.537.134 1.209.134 1.88.134-.134-.671-.403-1.209-.806-1.612s-.671-.537-1.074-.537Zm-1.478-4.836.302.281.605.513c.1.088.201.18.302.28-.269.404-.537.672-.806.941-.403-.403-.806-.806-1.209-1.075.269-.403.537-.671.806-.94Zm2.015-.134.302.281.605.512c.1.088.201.18.302.281-.269.403-.537.672-.806.94-.403-.402-.806-.805-1.209-1.074.269-.403.537-.672.806-.94ZM83.149 0c-.134.269-.134.537-.268.806-.403.403-.94.537-1.478.537-.672 0-1.478-.134-1.88-.134-.135 0-.404.403-.538.806h-.134l-.403-.672c0-.537.268-1.209.94-1.209.672 0 1.478.269 2.284.269.268 0 .537 0 .806-.134.268 0 .403-.135.671-.269Z"/></svg>
